Obsidian/status/22s/pomodoneapp-started.svg

<svg height="22" width="22" xmlns="http://www.w3.org/2000/svg"><path d="m11 3c-4.4182781-.0000001-8.0000001 3.5817219-8 8 0 4.418278 3.581722 8 8 8s8-3.581722 8-8c0-4.4182781-3.581722-8-8-8zm-2.5 4h5c.831 0 1.5.669 1.5 1.5v5c0 .831-.669 1.5-1.5 1.5h-5c-.831 0-1.5-.669-1.5-1.5v-5c0-.831.669-1.5 1.5-1.5zm2 1c-.277 0-.5.223-.5.5v2 1c0 .277.223.5.5.5h3c.277 0 .5-.223.5-.5v-1c0-.277-.223-.5-.5-.5h-1.5v-1.5c0-.277-.223-.5-.5-.5z" fill="#d3dae3"/></svg>

<svg xmlns="http://www.w3.org/2000/svg" width="22" height="22" version="1.1">
 <defs>
  <style id="current-color-scheme" type="text/css">
   .ColorScheme-Text { color:#d3dae3; } .ColorScheme-Highlight { color:#5294e2; }
  </style>
 </defs>
 <path style="fill:currentColor" class="ColorScheme-Text" d="M 11 3 C 6.5817219 2.9999999 2.9999999 6.5817219 3 11 C 3 15.418278 6.581722 19 11 19 C 15.418278 19 19 15.418278 19 11 C 19 6.5817219 15.418278 3 11 3 z M 8.5 7 L 13.5 7 C 14.331 7 15 7.669 15 8.5 L 15 13.5 C 15 14.331 14.331 15 13.5 15 L 8.5 15 C 7.669 15 7 14.331 7 13.5 L 7 8.5 C 7 7.669 7.669 7 8.5 7 z M 10.5 8 C 10.223 8 10 8.223 10 8.5 L 10 10.5 L 10 11.5 C 10 11.777 10.223 12 10.5 12 L 13.5 12 C 13.777 12 14 11.777 14 11.5 L 14 10.5 C 14 10.223 13.777 10 13.5 10 L 12 10 L 12 8.5 C 12 8.223 11.777 8 11.5 8 L 10.5 8 z"/>
</svg>
